X:1
T:Colombo, 11.10.11.10
T:Colombo, 11.10.11.10
T:Theodore Strong, 1920
T:Public Domain Courtesy of the Cyber Hymnal™
C:Theodore Strong, 1920
Z:Public Domain
Z:Courtesy of the Cyber Hymnal™
%%score ( 1 2 ) ( 3 4 )
L:1/8
Q:1/4=112
M:4/4
K:C
V:1 treble 
V:2 treble 
V:3 bass 
V:4 bass 
V:1
 [EG]4 [DF]3 [FA] | [EG]6 [EG]2 | [FA]3 [GB] [Ac]2 [FA]2 | [FA]4 [EG]4 | [DF]4 [B,D]3 [B,F] | %5
 [CE]6 [^A,E]2 | [B,D]2 [DG]2 [GB]3 [^FA] | G4- [FG]4 | [EG]4 [DF]3 [FA] | [EG]6 [EG]2 | %10
 [FA]3 [GB] [Ac]2 [Bd]2 | [Ge]4 [Ge]4 | [Ad]4 [Ac]3 [FA] | [EG]6 [Ec]2 | [GB]2 [Gc]2 [Ge]3 [Fd] | %15
 [Ec]8 |] %16
V:2
 x8 | x8 | x8 | x8 | x8 | x8 | x8 | G4 x4 | x8 | x8 | x8 | x8 | x8 | x8 | x8 | x8 |] %16
V:3
 [C,C]4 [G,B,]3 [G,B,] | [C,C]6 [C,C]2 | [F,C]3 [F,C] [F,C]2 [F,C]2 | [C,C]4 [C,C]4 | %4
 [G,B,]4 G,3 G, | [C,G,]6 [^C,G,]2 | [D,G,]2 [D,B,]2 [D,D]3 [D,C] | [G,B,]8 | %8
 [C,C]4 [G,B,]3 [G,B,] | [C,C]6 [C,_B,]2 | [F,A,]3 [G,B,] [A,C]2 [B,D]2 | C4 C4 | %12
 [F,C]4 [F,C]3 [F,C] | [C,C]6 [C,C]2 | [G,D]2 [G,E]2 [G,C]3 [G,B,] | [C,C]8 |] %16
V:4
 x8 | x8 | x8 | x8 | x4 G,3 G, | x8 | x8 | x8 | x8 | x8 | x8 | C4 C4 | x8 | x8 | x8 | x8 |] %16

